X:95
T:Chaud Waltz Aurora. Le4.095
M:3/4
L:1/4
Q:1/4=120
B:L.Leadley MS#4 c1850
Z:Village Music Project, 2016 Ruairidh Greig
K:G
(gf)A|c3|(ed)G|B3|B>AD|B>AD|D2G|GBd|
(gf)A|c3|(ed)G|B3|B>AD|B>AD|1G3:|2GBd|
b-bB/z/b-|bB/z/b-|bB/z/b|b3|bad|a3|aad|b-bB/z/b-|
bB/z/b-|bB/z/b|bB/z/b|e'3|e'd'b|baf|gzd:|
"^VAR"[bB]|[bB]z[bB]|[bB]z[bB]|[bB]z[bB]|[bB]z||B|Bzg|gzf|fze|
ezB|Bze|gzb|(b2B)|(b2B)|Bzg|gzf|fze|
ezg|(f2e)|d2b|b2a|g2z:|(d/^c/d/e/f/g/)|(a/^g/b/a/=g/f/)|(e2d)|E2D|
(f/e/f/g/a/b/)|(c'/b/d'/c'/b/a/)|g2f|E2D|zd2|Gd'2|GAd|czz|
|:zzd|dzb|bza|azg|gzd|dzg|b2e'|zd'2|
azd|dzb|bza|azg|gzg|f2e|d2b|b2a|"Fines"g2:|

